X:1
T:The Well-Tempered Clavier Part I Fuga II 
T:BWV 847
T:Johann Sebastian Bach
%%score { ( 1 2 ) | 3 }
L:1/8
Q:1/4=83
M:4/4
K:Eb
V:1 treble nm="Harp"
V:2 treble 
V:3 bass 
V:1
 z8 | z8 | z g/^f/ gc eg/f/ g=a | dg/^f/ g=a c/d/ e2 d/c/ | Be/d/ eG Af/e/ f=A | %5
 Bg/f/ g=B cd/e/ f2- | fe/d/ c/B/A/G/ Fagf | edef =BcdB | cg/^f/ gd e2 z =e | ff/=e/ fc d2 z d | %10
 ee/d/ eB ce/d/ ef | Be/d/ ef A/B/ c2 B/A/ | G/E/F/G/ A/B/c/d/ e/d/c/d/ e/f/g/=a/ | %13
 b/F/G/A/ B/c/d/=e/ f/_e/d/e/ f/g/=a/=b/ | c'=b/=a/ g/=f/e/d/ cedc | B=ABc ^FGAF | %16
 Gd/c/ d z2 =e/d/ e z | z ^f/=e/ f z2 G/=F/ G z | z =A/G/ A z2 =B/A/ B z | z c/=B/ cG Ac/B/ cd | %20
 Gc/=B/ cd F/G/ A2 G/F/ | Ec/=B/ cG A2 z =A | BB/=A/ BF G2 z G- | GA/B/ c/=B/c/A/ F4- | %24
 Fd/c/ dF Ee/d/ eG | Ff/e/ fA G/f/e/d/ c/=B/=A/G/ | cfed z AGF | GF/E/ FD AG z =A | %28
 =Bc F/E/D/C/ C c/B/ cG | Ac/=B/ c[_A=Bd] G c/B/ cd | %30
[Q:1/4=80] F/G/ A2[Q:1/4=69][Q:1/4=60] G/F/[Q:1/4=54] =E4[Q:1/4=75] |] %31
V:2
 z c/=B/ cG Ac/B/ cd | Gc/=B/ cd F/G/ A2 G/F/ | E/c/=B/=A/ G/=F/E/D/ Cedc | B=ABc ^FGAF | %4
 G2 z/ C/D/E/ F/G/ A- A/D/E/F/ | G/=A/B- B/E/F/G/ _A/G/F/E/ Dc/=B/ | c2 z2 z fed | z AGF GF/E/ FD | %8
 G2 z =B cc/B/ cG | A2 z =A BB/A/ BF | G2 z G AAGF | %11
 z[I:staff +1] A,B,C[I:staff -1] z[I:staff +1] A,/G,/ A,F, | B,CB,A, B,G,F,E, | F,_DCB, CA,G,F, | %14
 G,[I:staff -1] G/^F/ GC EG/^F/ G=A | DG/^F/ G=A C/D/ E2 D/C/ | %16
 B, z z/ D/=E/^F/ G/=A/B- B/E/=F/G/ | =A/B/c- c/^F/G/A/ B_E/D/ EG, | A,F/E/ F=A, B,G/F/ G=B, | %19
 C/F/E/D/ C/_B,/[I:staff +1]A,/G,/ F,[I:staff -1]AGF | CECA, =B,CDB, | C2 z =E FF/E/ FC | %22
 D2 z D EE/D/ EB, | C4- CD/E/ F/E/F/D/ | =B,2 z B, C z2 E | D z z F F z z E | EAGF EDEF | %27
 =B,CDB, B,C z C | D/D/E/C/- C=B, C2 z =E | F2 z F FE/D/ EF | [=B,D] z [B,D] z [G,C]4 |] %31
V:3
 z8 | z8 | z8 | z8 | z8 | z8 | z C/=B,/ CG, A,C/B,/ CD | G,C/=B,/ CD F,/G,/ A,2 G,/F,/ | %8
 E,/C/=B,/=A,/ G,/F,/E,/D,/ C,/D,/E,/D,/ C,/B,,/A,,/G,,/ | %9
 F,,/B,/A,/G,/ F,/E,/D,/C,/ B,,/C,/D,/C,/ B,,/A,,/G,,/F,,/ | %10
 E,,/A,/G,/F,/ E,/_D,/C,/B,,/ A,,CB,A, | G,F,G,A, D,E,F,D, | E,A,G,F, G,E,D,C, | %13
 D,B,A,G, A,F,E,D, | E, z z2 z C,B,,=A,, | z E,D,C, D,C,/B,,/ C,D, | G,,B,/=A,/ B,D, E,C/B,/ C=E, | %17
 F,D/C/ D^F, G,2 z/ G,,/=A,,/=B,,/ | C,/D,/E,- E,/=A,,/B,,/C,/ D,/E,/F,- F,/=B,,/C,/D,/ | %19
 E, z z =E, F,F,,_E,,D,, | z A,,G,,F,, G,,F,,/E,,/ F,,G,, | %21
 C,/D,/E,/D,/ C,/B,,/A,,/G,,/ F,,/B,/A,/G,/ F,/E,/D,/C,/ | %22
 B,,/C,/D,/B,,/ B,,/A,,/G,,/F,,/ E,,/A,/G,/F,/ E,/D,/C,/B,,/ | %23
 A,,/B,,/C,/B,,/ A,,/G,,/F,,/E,,/ D,,/G,/F,/E,/ D,/C,/=B,,/=A,,/ | %24
 G,,2 z2 z/ G,,/=A,,/=B,,/ C,/D,/E,/F,/ | G,/F,/A,/G,/ F,/E,/D,/C,/ =B,,C,/B,,/ C,G,, | %26
 A,,C,/=B,,/ C,D, G,,C,/B,,/ C,D, | F,,/G,,/ A,,2 G,,/F,,/ E,,2 z E, | D,C,G,G,, [C,,C,]4- | %29
 [C,,C,]8- | [C,,C,]8 |] %31

